{"type": "map", "version": "1.10", "tiledversion": "1.10.2", "orientation": "orthogonal", "renderorder": "right-down", "width": 50, "height": 35, "tilewidth": 64, "tileheight": 64, "infinite": false, "nextlayerid": 4, "nextobjectid": 1, "tilesets": [{"firstgid": 1, "name": "avalon_ground", "image": "assets/avalon_ground.png", "imagewidth": 512, "imageheight": 640, "tilewidth": 64, "tileheight": 64, "tilecount": 80, "columns": 8, "margin": 0, "spacing": 0, "tiles": []}, {"firstgid": 81, "name": "avalon_obj", "image": "assets/avalon_obj.png", "imagewidth": 448, "imageheight": 128, "tilewidth": 64, "tileheight": 64, "tilecount": 14, "columns": 7, "margin": 0, "spacing": 0, "tiles": [{"id": 0, "properties": [{"name": "solid", "type": "bool", "value": true}]}, {"id": 1, "properties": [{"name": "solid", "type": "bool", "value": true}]}, {"id": 2, "properties": [{"name": "solid", "type": "bool", "value": true}]}, {"id": 3, "properties": [{"name": "solid", "type": "bool", "value": true}]}, {"id": 4, "properties": [{"name": "solid", "type": "bool", "value": true}]}, {"id": 5, "properties": [{"name": "solid", "type": "bool", "value": true}]}, {"id": 7, "properties": [{"name": "solid", "type": "bool", "value": true}]}, {"id": 8, "properties": [{"name": "solid", "type": "bool", "value": true}]}, {"id": 9, "properties": [{"name": "solid", "type": "bool", "value": true}]}, {"id": 10, "properties": [{"name": "solid", "type": "bool", "value": true}]}, {"id": 11, "properties": [{"name": "solid", "type": "bool", "value": true}]}]}, {"firstgid": 95, "name": "avalon_water_anim", "image": "assets/avalon_water_anim.png", "imagewidth": 192, "imageheight": 64, "tilewidth": 64, "tileheight": 64, "tilecount": 3, "columns": 3, "margin": 0, "spacing": 0, "tiles": [{"id": 0, "animation": [{"tileid": 0, "duration": 260}, {"tileid": 1, "duration": 260}, {"tileid": 2, "duration": 260}]}]}, {"firstgid": 98, "name": "avalon_trees", "image": "assets/avalon_trees.png", "imagewidth": 480, "imageheight": 192, "tilewidth": 96, "tileheight": 192, "tilecount": 5, "columns": 5, "margin": 0, "spacing": 0, "tiles": [{"id": 0, "properties": [{"name": "solid", "type": "bool", "value": true}]}, {"id": 1, "properties": [{"name": "solid", "type": "bool", "value": true}]}, {"id": 2, "properties": [{"name": "solid", "type": "bool", "value": true}]}, {"id": 3, "properties": [{"name": "solid", "type": "bool", "value": true}]}, {"id": 4, "properties": [{"name": "solid", "type": "bool", "value": true}]}]}], "layers": [{"id": 1, "name": "地板", "type": "tilelayer", "width": 50, "height": 35, "x": 0, "y": 0, "opacity": 1, "visible": true, "tintcolor": null, "offsetx": 0, "offsety": 0, "parallaxx": 1, "parallaxy": 1, "data": [49, 10, 2, 57, 27, 26, 26, 11, 57, 10, 50, 57, 44, 4, 45, 38, 3, 2, 4, 18, 26, 43, 46, 2, 44, 18, 51, 49, 51, 44, 38, 26, 41, 45, 27, 59, 2, 58, 59, 12, 51, 38, 35, 27, 11, 18, 58, 35, 10, 4, 37, 10, 36, 36, 46, 27, 59, 3, 57, 41, 44, 10, 37, 4, 44, 34, 49, 46, 36, 45, 18, 51, 4, 3, 50, 26, 58, 7, 7, 26, 10, 37, 27, 41, 49, 36, 12, 36, 36, 18, 50, 27, 51, 50, 49, 4, 46, 49, 12, 44, 57, 26, 12, 41, 37, 27, 49, 51, 44, 26, 50, 35, 58, 58, 3, 6, 17, 59, 35, 37, 27, 4, 18, 45, 51, 35, 18, 6, 6, 37, 49, 41, 11, 13, 14, 26, 57, 44, 44, 27, 57, 45, 38, 45, 37, 36, 26, 11, 43, 42, 4, 58, 3, 10, 11, 49, 12, 59, 50, 38, 46, 4, 37, 37, 46, 13, 13, 27, 44, 2, 50, 57, 10, 50, 44, 58, 27, 58, 49, 35, 10, 34, 38, 17, 6, 2, 57, 57, 27, 43, 58, 12, 17, 17, 49, 34, 49, 43, 46, 18, 11, 36, 58, 12, 44, 58, 43, 2, 46, 35, 42, 2, 10, 36, 59, 34, 26, 3, 26, 45, 4, 4, 57, 42, 4, 58, 44, 58, 11, 11, 50, 42, 44, 12, 27, 43, 46, 38, 18, 44, 58, 57, 7, 5, 51, 34, 37, 50, 49, 36, 41, 43, 41, 10, 26, 26, 4, 35, 2, 45, 44, 26, 45, 26, 2, 4, 51, 49, 3, 26, 4, 3, 35, 4, 43, 26, 27, 50, 42, 18, 44, 11, 57, 45, 45, 42, 26, 17, 17, 59, 38, 18, 10, 10, 50, 38, 36, 38, 38, 41, 57, 3, 50, 49, 49, 10, 3, 37, 57, 35, 59, 10, 26, 18, 18, 44, 41, 11, 38, 12, 27, 41, 26, 4, 41, 14, 17, 10, 3, 49, 44, 2, 4, 58, 26, 12, 38, 13, 14, 18, 37, 3, 12, 37, 2, 37, 27, 59, 59, 41, 34, 38, 51, 57, 59, 44, 50, 51, 42, 11, 18, 34, 18, 3, 45, 57, 44, 3, 57, 35, 3, 3, 45, 42, 43, 13, 7, 3, 43, 4, 12, 4, 46, 4, 50, 26, 37, 10, 45, 26, 45, 46, 3, 46, 4, 38, 50, 45, 45, 43, 35, 27, 18, 50, 51, 35, 26, 27, 37, 11, 50, 49, 34, 41, 35, 58, 4, 2, 41, 46, 45, 10, 4, 44, 18, 43, 27, 11, 36, 14, 17, 36, 34, 12, 41, 44, 51, 34, 46, 59, 49, 43, 2, 50, 44, 34, 50, 10, 11, 27, 10, 10, 57, 44, 11, 27, 13, 46, 18, 7, 5, 14, 5, 49, 27, 43, 42, 27, 3, 4, 7, 5, 27, 3, 2, 35, 58, 11, 49, 5, 7, 57, 41, 44, 51, 38, 44, 2, 10, 4, 51, 11, 44, 3, 36, 13, 7, 11, 38, 11, 3, 34, 36, 59, 3, 36, 95, 5, 5, 95, 95, 95, 95, 44, 5, 46, 57, 11, 26, 12, 14, 17, 12, 38, 2, 12, 57, 35, 59, 38, 59, 50, 57, 59, 26, 27, 12, 59, 51, 10, 37, 3, 42, 26, 17, 95, 95, 13, 5, 6, 26, 2, 50, 18, 37, 7, 95, 95, 95, 95, 95, 95, 95, 17, 95, 7, 35, 2, 10, 27, 12, 45, 27, 3, 10, 46, 38, 36, 57, 59, 35, 38, 46, 43, 10, 37, 45, 18, 27, 3, 51, 38, 2, 13, 95, 95, 95, 95, 95, 95, 50, 18, 36, 5, 7, 95, 95, 95, 95, 95, 95, 95, 95, 95, 95, 95, 38, 35, 37, 51, 34, 44, 11, 18, 38, 50, 37, 50, 57, 12, 46, 45, 34, 37, 44, 2, 34, 34, 18, 38, 59, 13, 14, 95, 95, 95, 95, 95, 95, 95, 43, 42, 59, 95, 95, 95, 95, 95, 95, 95, 95, 95, 95, 95, 95, 95, 14, 50, 34, 26, 59, 18, 11, 2, 3, 26, 42, 46, 58, 4, 41, 38, 49, 45, 18, 51, 51, 37, 42, 37, 13, 95, 95, 95, 95, 95, 95, 95, 95, 95, 26, 12, 13, 95, 95, 95, 95, 5, 17, 95, 95, 95, 95, 95, 95, 95, 95, 6, 35, 58, 41, 46, 57, 43, 38, 44, 41, 12, 57, 42, 41, 27, 58, 26, 49, 27, 58, 58, 43, 13, 95, 95, 95, 95, 17, 95, 95, 14, 6, 6, 35, 13, 95, 95, 95, 6, 5, 51, 11, 6, 14, 7, 13, 13, 95, 95, 95, 95, 6, 18, 38, 37, 58, 45, 51, 2, 58, 45, 37, 42, 2, 36, 34, 58, 37, 38, 44, 57, 17, 95, 95, 95, 95, 5, 26, 14, 5, 42, 2, 37, 13, 95, 95, 95, 17, 57, 12, 41, 11, 46, 44, 2, 37, 45, 7, 95, 95, 95, 95, 14, 11, 41, 12, 3, 27, 37, 35, 18, 41, 35, 35, 58, 37, 27, 58, 38, 5, 6, 95, 95, 95, 7, 5, 36, 26, 49, 4, 58, 49, 3, 95, 95, 95, 95, 2, 46, 11, 26, 11, 42, 50, 10, 45, 18, 41, 7, 14, 95, 95, 95, 7, 46, 57, 51, 10, 58, 12, 34, 10, 45, 2, 34, 45, 50, 37, 7, 95, 95, 95, 95, 14, 49, 26, 10, 51, 58, 34, 50, 46, 59, 95, 95, 13, 7, 3, 36, 44, 38, 50, 36, 4, 43, 49, 35, 2, 38, 42, 17, 95, 95, 95, 13, 14, 14, 38, 12, 57, 43, 49, 27, 46, 59, 44, 58, 42, 95, 95, 95, 95, 17, 35, 26, 4, 27, 41, 26, 58, 41, 45, 46, 95, 7, 35, 2, 42, 35, 12, 42, 18, 36, 59, 27, 35, 27, 46, 51, 27, 44, 5, 95, 95, 95, 95, 95, 17, 42, 44, 58, 26, 51, 42, 49, 6, 42, 7, 95, 95, 95, 5, 26, 37, 51, 26, 34, 50, 45, 36, 42, 44, 43, 13, 38, 57, 44, 35, 36, 51, 41, 27, 34, 27, 26, 10, 57, 18, 35, 10, 57, 44, 7, 95, 95, 95, 95, 95, 42, 27, 57, 45, 13, 43, 46, 95, 13, 95, 95, 95, 14, 12, 34, 2, 51, 44, 11, 27, 3, 3, 44, 34, 51, 11, 49, 58, 42, 10, 2, 45, 34, 42, 42, 17, 5, 12, 3, 27, 42, 10, 4, 37, 42, 14, 95, 95, 95, 95, 5, 17, 7, 6, 95, 17, 5, 95, 95, 95, 95, 95, 46, 59, 46, 26, 58, 43, 37, 41, 41, 34, 45, 38, 34, 45, 46, 3, 46, 57, 10, 58, 18, 49, 18, 14, 17, 4, 7, 17, 12, 44, 4, 12, 2, 38, 14, 95, 95, 95, 95, 95, 95, 95, 95, 95, 95, 95, 95, 95, 95, 5, 59, 59, 49, 45, 50, 59, 18, 38, 10, 44, 26, 49, 11, 27, 11, 4, 3, 12, 59, 34, 46, 57, 45, 34, 41, 10, 17, 17, 34, 51, 37, 27, 43, 44, 42, 95, 95, 95, 95, 95, 95, 95, 95, 95, 95, 95, 95, 7, 14, 45, 2, 58, 50, 27, 45, 3, 58, 17, 14, 7, 17, 49, 41, 27, 12, 45, 38, 49, 42, 4, 42, 36, 38, 35, 35, 50, 10, 12, 35, 38, 51, 42, 34, 50, 37, 17, 5, 95, 95, 95, 95, 95, 95, 95, 95, 95, 7, 2, 50, 44, 41, 38, 17, 7, 43, 6, 95, 95, 95, 95, 95, 6, 3, 18, 27, 44, 11, 34, 41, 51, 42, 10, 2, 49, 46, 59, 26, 51, 12, 34, 44, 2, 44, 38, 4, 13, 7, 17, 6, 7, 5, 14, 95, 17, 17, 13, 27, 38, 42, 42, 26, 41, 6, 17, 7, 95, 95, 95, 95, 95, 95, 17, 58, 59, 38, 35, 59, 43, 27, 2, 34, 57, 34, 45, 45, 50, 42, 11, 41, 44, 42, 36, 35, 44, 58, 44, 37, 41, 35, 18, 51, 26, 5, 37, 26, 58, 38, 3, 35, 57, 42, 51, 59, 37, 37, 95, 95, 95, 95, 95, 95, 11, 43, 45, 35, 10, 41, 10, 43, 41, 2, 57, 11, 38, 49, 11, 4, 42, 59, 27, 35, 46, 51, 37, 49, 4, 35, 50, 44, 37, 35, 49, 51, 58, 42, 44, 3, 46, 4, 26, 49, 50, 34, 26, 57, 95, 95, 95, 95, 13, 95, 5, 41, 12, 51, 34, 2, 3, 35, 59, 3, 34, 36, 36, 38, 11, 26, 43, 38, 45, 50, 59, 12, 12, 12, 4, 46, 37, 46, 50, 26, 42, 45, 11, 26, 41, 49, 27, 41, 27, 50, 2, 59, 41, 34, 50, 95, 95, 95, 95, 95, 13, 34, 49, 38, 51, 27, 41, 34, 18, 37, 42, 10, 26, 37, 45, 36, 45, 34, 51, 34, 2, 50, 37, 27, 2, 45, 50, 58, 57, 3, 46, 57, 42, 34, 58, 59, 26, 46, 59, 36, 26, 49, 18, 46, 95, 95, 95, 5, 95, 95, 50, 11, 49, 10, 49, 49, 3, 34, 59, 41, 3, 45, 36, 57, 11, 4, 34, 35, 57, 38, 12, 18, 11, 59, 44, 36, 14, 6, 27, 12, 27, 42, 59, 34, 57, 35, 59, 10, 41, 4, 11, 58, 26, 50, 57, 7, 5, 59, 44, 36, 4, 59, 37, 2, 27, 44, 10, 41, 36, 50, 57, 50, 27, 45, 37, 49, 36, 10, 50, 26, 42, 2, 46, 44, 35, 46, 5, 13, 4, 49, 41, 51, 34, 49, 38, 10, 11, 3, 3, 34, 42, 10, 10, 26, 44, 11, 37, 41, 36, 50, 57, 51, 44, 38, 45, 57, 57, 11, 38, 49, 10, 42, 46, 38, 27, 3, 51, 36, 18, 41, 41, 26, 36, 10, 50, 36, 44, 49, 36, 3, 37, 27, 18, 10, 41, 4, 50, 18, 49, 49, 46, 2, 3, 59, 35, 26, 11, 59, 45, 18, 4, 58, 44, 18, 45, 18, 26, 35, 58, 11, 59, 46, 2, 27, 11, 11, 44, 27, 59, 12, 10, 50, 2, 11, 2, 36, 59, 59, 26, 45, 35, 2, 12, 27, 3, 11, 57, 38, 43, 14, 6, 4, 42, 41, 58, 36, 43, 45, 10, 41, 43, 26, 46, 3, 57, 59, 50, 43, 34, 41, 49, 2, 3, 42, 37, 38, 50, 10, 42, 51, 41, 4, 4, 35, 46, 11, 4, 11, 27, 46, 49, 45, 44, 51, 35, 37, 46, 43, 34, 7, 7, 46, 38, 10, 59, 51, 10, 49, 49, 58, 44, 57]}, {"id": 2, "name": "cover_装饰", "type": "tilelayer", "width": 50, "height": 35, "x": 0, "y": 0, "opacity": 1, "visible": true, "tintcolor": null, "offsetx": 0, "offsety": 0, "parallaxx": 1, "parallaxy": 1, "data": [0, 0, 0, 0, 0, 0, 0, 0, 0, 0, 0, 0, 0, 0, 0, 87, 89, 0, 0, 0, 0, 0, 0, 0, 0, 0, 0, 0, 0, 0, 0, 0, 0, 0, 0, 0, 0, 87, 0, 0, 0, 0, 0, 0, 0, 0, 0, 0, 0, 0, 0, 0, 0, 0, 0, 0, 0, 0, 0, 0, 0, 0, 0, 0, 0, 0, 0, 0, 0, 0, 0, 0, 0, 0, 0, 0, 0, 0, 0, 0, 0, 0, 0, 0, 0, 0, 0, 0, 0, 0, 0, 0, 0, 0, 0, 0, 84, 0, 0, 0, 0, 0, 0, 0, 0, 0, 0, 0, 0, 0, 0, 0, 0, 0, 0, 0, 0, 0, 0, 0, 0, 0, 0, 0, 0, 0, 0, 0, 0, 0, 0, 0, 0, 0, 0, 0, 0, 0, 0, 0, 0, 0, 0, 0, 0, 0, 0, 0, 0, 0, 0, 0, 0, 0, 0, 0, 0, 0, 0, 0, 0, 0, 0, 0, 0, 0, 0, 0, 0, 0, 0, 0, 0, 0, 0, 0, 0, 0, 0, 0, 0, 0, 0, 0, 0, 0, 88, 0, 0, 0, 0, 0, 0, 0, 0, 0, 0, 0, 0, 0, 0, 0, 0, 84, 0, 0, 0, 0, 0, 0, 0, 0, 0, 81, 0, 0, 0, 0, 0, 0, 0, 0, 0, 0, 0, 0, 0, 0, 0, 0, 0, 0, 0, 0, 0, 0, 0, 0, 0, 0, 0, 0, 0, 0, 88, 0, 0, 0, 0, 0, 0, 0, 0, 0, 0, 0, 0, 0, 0, 0, 0, 0, 0, 0, 0, 0, 0, 0, 0, 0, 0, 0, 0, 0, 89, 0, 0, 0, 0, 0, 0, 0, 0, 0, 0, 0, 0, 0, 0, 0, 0, 0, 0, 0, 0, 0, 0, 0, 0, 0, 0, 0, 0, 0, 0, 0, 0, 0, 0, 0, 0, 0, 0, 0, 0, 0, 0, 0, 0, 0, 0, 0, 0, 0, 0, 0, 0, 0, 0, 0, 0, 0, 0, 0, 0, 0, 0, 0, 0, 0, 0, 0, 0, 0, 0, 0, 0, 0, 0, 0, 0, 0, 0, 87, 87, 0, 0, 0, 0, 0, 0, 0, 0, 0, 0, 0, 0, 0, 0, 0, 0, 0, 0, 0, 0, 0, 0, 0, 0, 0, 0, 0, 0, 0, 0, 0, 0, 0, 0, 0, 0, 0, 0, 0, 87, 0, 0, 0, 0, 0, 0, 0, 0, 0, 0, 0, 0, 0, 0, 0, 0, 87, 0, 0, 87, 0, 0, 0, 0, 0, 0, 0, 0, 0, 0, 0, 0, 0, 0, 0, 0, 0, 0, 0, 0, 0, 0, 0, 0, 0, 0, 0, 0, 0, 0, 0, 0, 0, 0, 0, 0, 0, 0, 0, 0, 0, 0, 0, 0, 0, 0, 0, 0, 0, 0, 0, 0, 0, 0, 0, 0, 0, 0, 0, 0, 0, 0, 0, 0, 0, 0, 0, 0, 0, 0, 0, 0, 0, 0, 0, 0, 0, 0, 0, 0, 0, 0, 0, 0, 0, 0, 0, 0, 0, 0, 0, 0, 0, 0, 0, 0, 0, 0, 0, 0, 0, 0, 0, 0, 0, 0, 0, 0, 0, 0, 0, 0, 0, 0, 0, 0, 0, 0, 0, 0, 0, 0, 0, 0, 0, 0, 0, 0, 0, 0, 0, 0, 0, 0, 0, 0, 0, 0, 0, 0, 0, 0, 0, 0, 0, 0, 0, 0, 0, 0, 0, 0, 0, 0, 0, 0, 0, 0, 0, 0, 0, 90, 0, 0, 0, 0, 0, 0, 0, 0, 0, 0, 0, 0, 0, 0, 0, 0, 0, 0, 0, 0, 0, 0, 0, 0, 0, 0, 0, 0, 0, 0, 0, 0, 0, 0, 0, 0, 0, 0, 0, 0, 87, 87, 0, 0, 0, 0, 0, 0, 0, 0, 0, 0, 0, 0, 0, 0, 0, 0, 0, 0, 0, 0, 0, 0, 0, 0, 0, 0, 0, 0, 0, 0, 0, 0, 0, 0, 0, 0, 0, 0, 0, 0, 0, 0, 0, 0, 0, 0, 0, 0, 0, 0, 0, 0, 0, 0, 0, 0, 0, 0, 0, 0, 0, 0, 0, 0, 0, 0, 0, 0, 0, 0, 0, 0, 0, 0, 0, 0, 0, 0, 0, 0, 0, 0, 0, 0, 0, 0, 0, 0, 0, 0, 0, 0, 0, 0, 0, 0, 0, 0, 0, 0, 0, 0, 0, 0, 87, 0, 0, 0, 0, 0, 0, 0, 0, 0, 0, 0, 0, 0, 0, 0, 0, 0, 0, 0, 0, 0, 0, 0, 0, 0, 0, 0, 0, 0, 0, 0, 0, 0, 0, 0, 0, 0, 0, 0, 0, 0, 0, 0, 0, 0, 0, 0, 0, 0, 0, 0, 0, 0, 0, 0, 0, 0, 0, 0, 0, 0, 0, 0, 0, 0, 0, 0, 0, 0, 0, 87, 0, 0, 0, 87, 0, 0, 0, 0, 0, 0, 0, 0, 0, 0, 0, 0, 0, 0, 0, 0, 0, 0, 0, 0, 0, 0, 0, 0, 0, 0, 0, 0, 0, 0, 0, 0, 0, 0, 0, 0, 0, 0, 0, 0, 0, 0, 0, 0, 0, 0, 0, 0, 0, 0, 0, 0, 0, 0, 0, 0, 0, 0, 0, 0, 0, 0, 0, 0, 0, 0, 0, 0, 0, 0, 0, 0, 0, 0, 0, 0, 0, 0, 0, 0, 0, 0, 0, 0, 0, 0, 0, 0, 0, 0, 0, 0, 0, 0, 0, 0, 0, 0, 0, 87, 0, 0, 0, 0, 0, 0, 0, 0, 0, 0, 0, 0, 0, 0, 0, 0, 0, 0, 0, 0, 0, 0, 0, 0, 0, 0, 0, 0, 0, 0, 0, 0, 0, 0, 0, 0, 0, 0, 0, 0, 0, 87, 0, 0, 0, 0, 0, 0, 0, 0, 0, 0, 0, 0, 0, 0, 0, 0, 0, 0, 0, 0, 0, 0, 0, 0, 0, 0, 0, 0, 0, 0, 0, 0, 0, 0, 0, 0, 0, 0, 87, 0, 0, 0, 0, 0, 0, 0, 0, 0, 0, 0, 0, 0, 0, 0, 87, 0, 0, 0, 0, 0, 0, 0, 0, 0, 0, 0, 0, 0, 0, 90, 0, 0, 0, 0, 0, 0, 0, 0, 0, 0, 0, 0, 0, 0, 0, 0, 0, 0, 0, 87, 0, 0, 0, 0, 0, 0, 0, 0, 0, 0, 0, 0, 0, 0, 0, 0, 0, 0, 0, 87, 0, 0, 0, 0, 0, 0, 87, 0, 0, 0, 0, 0, 0, 0, 0, 0, 0, 0, 0, 0, 0, 0, 0, 0, 0, 0, 0, 0, 0, 0, 0, 0, 0, 0, 0, 0, 0, 0, 0, 0, 0, 0, 0, 0, 0, 0, 0, 0, 0, 0, 0, 0, 0, 0, 0, 0, 0, 0, 0, 0, 0, 0, 0, 0, 0, 0, 0, 0, 0, 0, 0, 0, 0, 0, 0, 0, 0, 0, 0, 0, 0, 0, 0, 0, 0, 0, 0, 0, 0, 0, 81, 0, 0, 0, 0, 0, 0, 0, 0, 0, 0, 0, 0, 0, 0, 0, 0, 0, 0, 0, 0, 0, 0, 0, 0, 87, 0, 0, 0, 0, 0, 0, 0, 0, 0, 0, 0, 0, 0, 0, 0, 0, 0, 0, 0, 0, 0, 0, 0, 0, 0, 0, 0, 0, 0, 0, 0, 0, 0, 0, 0, 0, 0, 0, 0, 0, 0, 0, 0, 0, 0, 0, 0, 0, 0, 87, 0, 0, 0, 0, 0, 0, 0, 0, 0, 0, 0, 0, 0, 0, 0, 0, 0, 0, 0, 0, 0, 0, 0, 0, 0, 0, 0, 0, 0, 0, 0, 0, 0, 0, 0, 0, 0, 0, 0, 0, 0, 0, 0, 87, 87, 0, 0, 0, 0, 0, 0, 0, 0, 0, 0, 0, 0, 0, 0, 0, 0, 0, 0, 0, 0, 0, 0, 0, 0, 0, 0, 0, 0, 0, 0, 0, 0, 0, 0, 0, 0, 0, 0, 0, 0, 0, 0, 0, 0, 0, 0, 0, 0, 0, 0, 0, 0, 0, 0, 0, 0, 0, 0, 0, 0, 0, 0, 0, 0, 0, 0, 0, 0, 0, 0, 84, 0, 0, 0, 0, 0, 0, 0, 0, 0, 0, 0, 0, 0, 0, 0, 0, 0, 0, 0, 0, 0, 0, 0, 0, 0, 0, 0, 0, 0, 0, 0, 0, 0, 0, 0, 0, 0, 0, 0, 0, 0, 0, 0, 0, 0, 0, 0, 0, 0, 0, 0, 0, 0, 0, 0, 0, 0, 0, 0, 0, 0, 0, 0, 0, 0, 0, 0, 0, 0, 0, 0, 0, 0, 0, 0, 0, 0, 0, 0, 0, 0, 0, 87, 0, 0, 0, 0, 0, 0, 0, 0, 0, 0, 0, 0, 0, 0, 0, 0, 90, 87, 0, 0, 0, 0, 0, 0, 0, 0, 0, 0, 0, 0, 0, 0, 0, 0, 0, 0, 0, 82, 0, 0, 0, 0, 0, 0, 0, 0, 0, 0, 0, 0, 0, 0, 0, 0, 0, 0, 0, 0, 0, 0, 0, 0, 0, 0, 0, 0, 0, 0, 0, 0, 0, 0, 0, 0, 0, 0, 0, 0, 0, 0, 0, 0, 0, 0, 0, 0, 0, 0, 0, 0, 0, 0, 0, 0, 0, 0, 0, 0, 0, 0, 0, 0, 0, 0, 0, 0, 0, 0, 0, 0, 87, 0, 0, 0, 0, 0, 0, 0, 0, 0, 0, 0, 0, 0, 0, 0, 0, 0, 0, 0, 0, 0, 0, 0, 0, 0, 0, 0, 0, 0, 0, 0, 0, 0, 0, 0, 0, 0, 0, 0, 0, 0, 0, 0, 0, 0, 0, 0, 0, 0, 0, 0, 0, 0, 0, 0, 0, 0, 0, 0, 0, 0, 0, 0, 0, 0, 0, 0, 0, 81, 0, 0, 0, 0, 0, 0, 0, 82, 0, 0, 0, 0, 0, 0, 0, 0, 0, 0, 0, 0, 0, 0, 0, 0, 0, 0, 0, 0, 0, 0, 0, 87, 0, 0, 0, 0, 0, 0, 0, 0, 0, 0, 0, 0, 0, 0, 0, 87, 0, 0, 0, 0, 0, 0, 0, 0, 0, 0, 0, 0, 0, 0, 0, 0, 0, 0, 0, 0, 0, 0, 0, 0, 0, 0, 0, 0, 0, 0, 0, 0, 0, 0, 0, 0, 0, 0, 0, 0, 0, 0, 0, 0, 0, 0, 0, 0, 0, 0, 0, 0, 0, 0, 0, 0, 0, 0, 0, 0, 0, 0, 0, 0, 0, 0, 0, 84, 0, 0, 0, 0, 0, 0, 0, 0, 0, 0, 0, 0, 0, 0, 0, 0, 0, 0, 0, 0, 0, 0, 0, 0, 82, 0, 0, 0, 0, 0, 82, 0, 0, 0, 0, 0, 87, 0]}, {"id": 3, "name": "cover_障碍0", "type": "tilelayer", "width": 50, "height": 35, "x": 0, "y": 0, "opacity": 1, "visible": true, "tintcolor": null, "offsetx": 0, "offsety": 0, "parallaxx": 1, "parallaxy": 1, "data": [0, 0, 0, 0, 0, 0, 0, 0, 0, 0, 0, 0, 0, 0, 0, 0, 0, 0, 0, 0, 98, 0, 0, 0, 0, 0, 0, 0, 0, 0, 0, 0, 0, 0, 0, 0, 0, 0, 0, 0, 0, 0, 0, 0, 0, 0, 0, 0, 0, 0, 0, 0, 0, 0, 0, 0, 0, 0, 0, 0, 0, 0, 0, 0, 0, 0, 0, 0, 0, 0, 0, 0, 0, 0, 0, 0, 0, 0, 0, 0, 0, 0, 0, 98, 0, 0, 0, 0, 0, 0, 0, 0, 0, 0, 0, 0, 0, 0, 0, 0, 0, 0, 0, 0, 0, 0, 0, 0, 0, 0, 0, 0, 0, 0, 0, 0, 0, 0, 0, 0, 86, 0, 0, 0, 0, 100, 0, 0, 0, 0, 98, 0, 99, 0, 0, 99, 85, 0, 0, 0, 0, 0, 0, 0, 0, 98, 0, 0, 0, 0, 0, 0, 0, 0, 0, 98, 0, 0, 0, 0, 0, 0, 0, 0, 0, 0, 0, 85, 0, 0, 85, 0, 0, 0, 0, 0, 0, 100, 0, 0, 0, 0, 0, 0, 0, 100, 0, 0, 0, 0, 0, 99, 0, 0, 0, 0, 98, 0, 0, 0, 0, 0, 0, 0, 0, 0, 0, 0, 0, 0, 0, 0, 0, 0, 0, 0, 0, 0, 0, 0, 0, 0, 0, 0, 0, 0, 0, 0, 0, 0, 0, 0, 0, 0, 0, 0, 0, 100, 0, 0, 0, 98, 0, 0, 0, 0, 0, 0, 0, 0, 0, 0, 0, 0, 0, 0, 0, 0, 0, 0, 0, 0, 0, 0, 0, 0, 0, 0, 0, 0, 101, 0, 0, 0, 0, 0, 0, 0, 0, 0, 100, 0, 98, 0, 0, 0, 100, 0, 0, 0, 0, 0, 0, 99, 0, 98, 0, 0, 0, 0, 0, 0, 0, 0, 0, 91, 0, 0, 0, 0, 102, 0, 0, 0, 0, 0, 0, 0, 0, 0, 0, 86, 0, 0, 0, 0, 0, 0, 0, 0, 99, 0, 0, 99, 0, 98, 0, 0, 0, 0, 0, 0, 0, 98, 0, 98, 0, 0, 0, 0, 0, 0, 0, 0, 0, 0, 0, 0, 0, 0, 0, 0, 0, 0, 0, 0, 0, 0, 0, 0, 0, 0, 0, 0, 0, 0, 0, 0, 0, 0, 0, 0, 0, 99, 0, 99, 0, 0, 99, 0, 0, 0, 0, 0, 0, 99, 0, 0, 0, 0, 0, 0, 0, 0, 0, 0, 0, 0, 0, 0, 0, 0, 0, 0, 0, 0, 0, 0, 0, 0, 0, 0, 0, 0, 0, 0, 0, 0, 0, 0, 0, 0, 98, 0, 0, 99, 0, 0, 0, 0, 98, 0, 100, 0, 99, 85, 98, 0, 0, 0, 0, 0, 0, 0, 0, 0, 0, 0, 0, 0, 0, 0, 0, 0, 0, 0, 0, 0, 0, 0, 0, 0, 0, 0, 0, 0, 0, 0, 0, 0, 0, 98, 0, 100, 0, 0, 99, 0, 99, 0, 0, 0, 0, 0, 98, 0, 0, 0, 0, 0, 0, 0, 0, 0, 0, 0, 0, 0, 0, 0, 0, 0, 0, 0, 0, 0, 0, 0, 0, 0, 0, 0, 0, 0, 0, 0, 0, 0, 0, 0, 0, 100, 0, 0, 0, 98, 0, 91, 0, 0, 99, 0, 100, 0, 0, 0, 0, 0, 0, 0, 0, 0, 0, 0, 0, 0, 0, 0, 0, 0, 0, 0, 0, 0, 0, 0, 0, 0, 0, 0, 0, 0, 0, 0, 0, 0, 0, 0, 86, 0, 0, 0, 0, 0, 0, 99, 0, 0, 100, 0, 99, 0, 0, 0, 0, 0, 0, 0, 0, 0, 0, 0, 0, 0, 0, 0, 0, 0, 0, 0, 0, 0, 0, 0, 0, 0, 0, 0, 0, 0, 0, 0, 0, 0, 0, 0, 0, 0, 0, 0, 99, 0, 98, 0, 0, 99, 0, 0, 98, 0, 0, 0, 0, 0, 0, 0, 0, 0, 0, 0, 0, 0, 0, 0, 0, 0, 0, 0, 0, 0, 0, 0, 0, 0, 0, 0, 0, 100, 0, 0, 0, 0, 0, 0, 0, 0, 0, 0, 0, 0, 0, 0, 100, 0, 0, 0, 0, 100, 0, 0, 0, 0, 0, 0, 0, 0, 0, 0, 0, 0, 0, 0, 0, 0, 0, 0, 0, 0, 0, 0, 0, 0, 0, 0, 0, 0, 0, 0, 0, 0, 0, 0, 0, 0, 0, 0, 0, 0, 0, 0, 99, 0, 99, 0, 99, 0, 99, 0, 0, 0, 0, 0, 0, 0, 0, 0, 0, 0, 0, 0, 0, 0, 0, 0, 0, 0, 0, 0, 0, 0, 0, 0, 0, 0, 0, 0, 0, 0, 0, 0, 0, 0, 0, 0, 0, 0, 0, 0, 0, 0, 0, 0, 0, 0, 0, 0, 0, 0, 0, 0, 0, 0, 0, 0, 0, 0, 0, 0, 0, 0, 0, 0, 0, 0, 0, 0, 0, 0, 0, 0, 98, 0, 0, 0, 0, 0, 0, 0, 0, 0, 0, 0, 0, 0, 0, 0, 0, 0, 0, 0, 101, 0, 0, 0, 0, 0, 0, 0, 0, 0, 0, 0, 0, 0, 0, 0, 0, 0, 0, 0, 0, 0, 0, 0, 0, 0, 0, 0, 0, 0, 0, 0, 0, 0, 0, 0, 0, 0, 0, 0, 0, 0, 0, 0, 0, 0, 0, 0, 0, 0, 0, 0, 0, 0, 0, 0, 0, 0, 0, 0, 0, 0, 0, 0, 0, 0, 0, 0, 0, 0, 0, 0, 0, 0, 0, 0, 0, 0, 0, 0, 0, 92, 0, 0, 0, 0, 0, 0, 0, 0, 0, 0, 0, 0, 0, 98, 0, 0, 0, 0, 0, 0, 0, 0, 0, 0, 0, 0, 0, 0, 0, 0, 0, 0, 0, 0, 0, 0, 0, 0, 0, 0, 0, 0, 0, 0, 0, 0, 0, 0, 0, 0, 0, 0, 0, 0, 0, 0, 0, 0, 0, 0, 0, 0, 0, 0, 0, 0, 0, 0, 0, 0, 0, 99, 0, 0, 0, 0, 0, 0, 0, 0, 0, 0, 0, 0, 0, 0, 0, 0, 0, 0, 98, 0, 99, 0, 0, 0, 0, 0, 0, 0, 0, 0, 0, 0, 0, 0, 0, 0, 0, 0, 0, 0, 0, 0, 0, 0, 0, 0, 0, 0, 0, 0, 0, 0, 0, 0, 0, 0, 0, 0, 0, 0, 0, 0, 0, 0, 0, 0, 0, 0, 0, 99, 0, 100, 0, 0, 98, 0, 0, 0, 0, 0, 0, 0, 0, 0, 0, 0, 0, 0, 0, 0, 0, 0, 0, 0, 0, 0, 0, 0, 0, 0, 0, 0, 0, 0, 0, 0, 0, 0, 0, 0, 0, 0, 0, 0, 0, 0, 0, 0, 99, 0, 98, 0, 0, 0, 100, 0, 0, 0, 0, 0, 0, 0, 0, 0, 0, 0, 0, 0, 0, 0, 0, 0, 0, 0, 0, 0, 0, 0, 0, 0, 0, 0, 0, 0, 0, 98, 0, 0, 0, 0, 0, 0, 0, 0, 0, 0, 0, 0, 0, 0, 0, 0, 98, 0, 98, 0, 0, 98, 0, 0, 0, 0, 0, 0, 0, 0, 0, 0, 0, 0, 0, 0, 0, 0, 0, 0, 0, 0, 0, 0, 0, 0, 0, 0, 0, 0, 0, 0, 0, 0, 0, 0, 0, 0, 0, 0, 0, 0, 0, 0, 0, 98, 0, 0, 0, 0, 99, 0, 0, 0, 0, 0, 0, 0, 0, 0, 0, 0, 0, 0, 0, 0, 0, 0, 0, 0, 0, 0, 0, 0, 0, 0, 0, 0, 0, 0, 0, 0, 0, 0, 0, 0, 0, 0, 0, 0, 0, 0, 98, 0, 0, 99, 0, 100, 0, 100, 0, 0, 99, 0, 0, 0, 0, 0, 0, 0, 0, 0, 0, 0, 0, 0, 0, 0, 0, 0, 0, 0, 0, 0, 0, 0, 0, 0, 0, 0, 0, 0, 0, 0, 0, 0, 0, 0, 0, 0, 0, 0, 0, 0, 0, 98, 0, 0, 98, 0, 98, 0, 98, 0, 0, 0, 0, 0, 0, 0, 0, 0, 0, 0, 0, 0, 0, 0, 0, 0, 0, 0, 0, 0, 0, 0, 0, 0, 0, 0, 0, 0, 0, 0, 0, 0, 0, 0, 0, 0, 0, 0, 0, 0, 99, 0, 0, 0, 99, 0, 0, 0, 98, 0, 0, 0, 0, 0, 0, 0, 0, 0, 0, 0, 0, 0, 0, 0, 0, 0, 0, 0, 0, 0, 0, 0, 0, 0, 0, 0, 0, 0, 0, 0, 0, 0, 0, 0, 0, 0, 0, 0, 98, 0, 0, 0, 0, 100, 0, 0, 98, 0, 0, 0, 0, 0, 0, 0, 0, 0, 0, 0, 0, 0, 0, 0, 0, 0, 0, 0, 0, 0, 0, 0, 0, 0, 0, 0, 0, 0, 0, 0, 0, 0, 0, 0, 0, 0, 0, 0, 0, 0, 98, 0, 99, 0, 0, 0, 99, 0, 99, 0, 99, 0, 0, 0, 0, 0, 0, 0, 86, 0, 0, 0, 0, 0, 0, 0, 0, 0, 0, 0, 0, 0, 98, 0, 0, 0, 0, 0, 0, 0, 0, 0, 0, 0, 0, 0, 0, 0, 0, 0, 99, 0, 0, 0, 0, 0, 0, 0, 0, 98, 0, 0, 0, 0, 0, 0, 0, 0, 0, 0, 0, 85, 0, 0, 0, 0, 0, 0, 0, 0, 0, 0, 0, 0, 0, 0, 0, 0, 99, 0, 0, 0, 0, 0, 0, 0, 0, 0, 0, 0, 0, 0, 0, 0, 0, 0, 0, 0, 0, 0, 0, 0, 0, 0, 0, 0, 0, 0, 98, 0, 0, 0, 0, 0, 0, 86, 0, 0, 0, 0, 0, 0, 0, 0, 0, 0, 0, 0, 0, 0, 0, 0, 0, 0, 0, 0, 0, 0, 0, 0, 0, 0, 0, 0, 0, 0, 0, 0, 86, 0, 0, 0, 0, 0, 0, 0, 0, 0, 0, 0, 0, 0, 0, 0, 0, 0, 0, 0, 0, 0, 0, 0, 0, 0, 0, 0, 0, 0, 0, 0, 0, 0, 0, 0, 0, 0, 0, 0, 0, 0, 0, 0, 0, 0, 0, 0, 0, 0, 0, 0, 0, 0, 0, 0, 0, 0, 0, 0, 0, 0, 0, 0, 0, 0, 0, 0, 0, 0, 0, 0, 0, 0, 0, 0, 0, 0, 0, 0, 0, 0, 0, 0, 0, 0, 0, 0, 0, 0, 0, 0, 0, 0, 0, 0, 0, 0, 0, 0, 0, 0, 0, 0, 0, 0, 0, 0, 0, 0, 0, 0, 0, 0, 0, 0, 0, 0, 0, 0, 0, 0, 0, 0, 0, 0, 0, 0, 0, 0, 0, 0, 0, 0, 0, 0, 0, 0, 0, 0]}], "properties": [{"name": "source", "type": "string", "value": "Avalon (Cliff) tileset by Leonard Pabin, OGA, copyleft 2009"}]}